X:1
T:Per pianto la mia carne
T:Orlandus Lassus
T:Source: Harmonia celeste---Anversa---P.Phalesio & G.Bellero---1583. Editor André Vierendeels (20/11/13).
T:Per pianto la mia carne
C:Orlando di Lasso
%%score [ 1 [ 2 3 ] 4 ]
L:1/8
Q:1/4=120
M:2/2
K:C
V:1 treble nm="Canto" snm="C"
V:2 treble nm="Alto" snm="A"
V:3 treble-8 nm="Tenor" snm="T"
V:4 bass nm="Basso" snm="B"
V:1
 z8 | A8- | A8 | G8- | G4 ^F4 | G4 G4 | A6 B2 | c4 c4 | B4 ^c4 | d8 | A8 | z4 A4- | A4 G4 | F4 E4 | %14
w: |Per|_|pian-|* to|la mia|car- *|* ne|si di-|stil-|la,|la|_ mia|car- ne|
 F4 G4 | A6 B2 | c4 B4- | B2 A2 A4- |"^#" A4 G4 | A8 | A8 | A4 A4 | G6 G2 | E4 F2 F2 | %24
w: si di-|stil- *||||la,|si|com' al|sol la|ne- ve, si|
 A2 A2 G2 F2 | G8 | G2 G2 c2 c2 | B4 A4 | z2 G4 E2- | E2 A3 G F2- | F2 D2 d4- | d4 ^c4 | z4 A4 | %33
w: com' al sol la|ne-|ve, o com' al|ven- to|si dis-|* fa _ _|_ la neb-|* bia,|ne|
 c6 A2 | B2 c2 A4 | B8 | z8 | z8 | z4 G4 | A6 c2 | B2 c2 A4- | A4 ^G4 | z4 A4- | A4 A4- | %44
w: so che|far mi deb-|bia,|||ne|so che|far mi deb-|* bia,|hor|_ pen-|
 A2 B2 c4- | c4 _B4 | A4 G4 | A8 | z4 c4- | c4 B4 | A4 G4 | G4 E2 c2 | B2 G2 A4 | G8 | z4 d4- | %55
w: |* sia-|te'al mio|mal,|hor|_ pen-|sia- te'ail|mio mal,- [qual]|es- ser de-|ve,|hor|
 d4 c4 | c4 c4- | c4 B4 | B8 | z2 A2 G2 E2 | F4 E4- | E2 c2 B2 G2 | A4 G4 | d4 c2 A2 | B4 G2 c2- | %65
w: _ pen|sia- te'al|_ mio|mal,|qual es- ser|de- ve,|_ qual es- ser|de- ve,|qual es- ser|de- ve, qual|
 c2 B4 B2 | A8- | A8 | ^G8 |] %69
w: _ es- ser|de-||ve.|
V:2
 z8 | z8 | E8- | E8 | D8- | D4 C4 | E4 ^F4 | G4 A4- | A4 G4- | G4 F4- | F2 D2 E4 | F8- | F4 D4 | %13
w: ||Per|_|pian-|* to|la mia|car- ne|_ si|_ di-||stil-|* la,|
 z8 | z4 E4 | F6 F2 | A2 A2 G4 | E4 E4- | E4 E4 | ^C8 | D4 F4 | E4 A,4 | D4 E4 | G4 C2 C2 | %24
w: |per|pian- to|la mia car-|ne si|_ di-|stil-|la, si|com'- al|sol la|ne- ve, si|
 F2 F2 D2 C2 | D8 | E4 G4 | G2 G2 F4 | D2 D2 E2 C2 | E4 A,2 C2 | D2 F4 D2 | F4 E4 | z4 F4- | %33
w: com' al sol la|ne-|ve, o|com' al ven-|to, o com' al|ven- to si|dis- fa la|neb- bia,|ne|
 F2 E2 A4 | G2 E2 F4 | D4 G4 | F6 D2 | E2 F2 D4 | E4 E4 | F6 E2 | G2 G2 F4 | E8 | F8- | F8 | %44
w: _ so che|far mi deb-|bia, ne|so che|far mi deb-|bia, ne|so che|far mi deb-|bia,|hor|_|
 E4 E4- | E2 F2 G4 | E4 D4 | E8 | z4 A4- | A4 G4 | F4 E4 | D4 C2 E2 | G2 E2 F4 | E4 D4 | F2 E2 F4 | %55
w: pen- sa-||te'ail mio|mal,|hor|_ pen-|sa- te'al|mio mal, qual|es- ser de-|ve, qual|es- ser de-|
 E8 | A8 | G4 G4- | G4 G4 | F4 E2 G2 | C2 D2 B,4 | C2 C2 D2 E2 | A,B, CD E4 | D2 G2 E2 F2 | %64
w: ve,|hor|pen- sa-|* te'al|mio mal, qual|es- ser de-|ve, qual es- ser|de- * * * *|ve, qual es- ser|
 G4 C2 G2 | G4 G4 | F2 E2 E4- | E2 DC D4 | E8 |] %69
w: de- ve, qual|es- ser|de- * *||ve.|
V:3
 A8- | A8 | c8- | c4 c4 | B6 B2 | B4 e4 | ^c4 d4 | e8- | e8 | A8 | z8 | d8- | d8 | c8- | c4 B4 | %15
w: Per|_|pian-|* to|ma mia|car- ne|si di-|stil-||la,||per|_|pian-|* to|
 c4 d4 | e4 d4 | c4 c4 | B8 | A4 e4 | f4 d4 | ^c2 c2 d4 | B4 B4 | c4 A3 B | c2 d2 B2 c2- | %25
w: la mia|car- ne|si di-|stil-|la, si|com' al|sol la ne-|ve, si|com' al _|_ sol la ne-|
 c2 BA B4 | c4 e4 | d8 | B4 c2 G2 | c6 A2- | A2 F4 G2 | A4 A4 | z4 d4 | A4 f4 | e2 c2 d4 | G4 d4- | %36
w: |ve, o|com'|al ven- to|si dis-|* fa la|neb- bia,|ne|so che|fae mi deb-|bia, ne|
 d2 A2 d4 | c2 A2 B4 | c8- | c4 c4 | d2 e2 d2 A2 | c4 B4 | d8- | d8 | c8 | A4 d4 | ^c4 d4- | %47
w: _ so che|far mi deb-|bia,|_ ne|so che far mi|deb- bia,|hor|_|pen-|sa- te'al|mio mal,|
"^-natural" d4 c4 | B2 c2 A4 | e8 | z8 | z8 | e4 d2 A2 | c4 G2 B2 | c2 c2 A4 | A8 | e8 | e4 e4- | %58
w: _ qual|es- ser de-|ve,|||qual es- ser|de- ve, qual|es- ser de-|ve,|hor|pen- sa-|
 e4 d4 | d4 B2 c2 | A2 A2 ^G4 | A4 z2 c2 | c2 A2 c4 | G2 B2 c2 c2 | d4 e4- | e4 d4 | c4 c4 | A8 | %68
w: * te'al|mio mal, qual|es- ser de-|ve, qual|es- ser de-|ve, qual es- ser|de- ve,|_ qual|es- ser|de-|
 B8 |] %69
w: ve.|
V:4
 z8 | z8 | z8 | z8 | z8 | z8 | z8 | E,8- | E,8 | D,8- | D,4 ^C,4 | D,4 D,4 | _B,,8 | A,,4 A,4- | %14
w: |||||||Per|_|pian-|* to|la mia|car-|ne, la|
 A,4 G,4 | F,4 D,4 | A,,4 B,,4 | C,6 D,2 | E,8 | A,,8 | z4 D,4 | A,4 ^F,4 | G,2 G,2 E,4 | %23
w: _ mia|car- ne|si di-|stil- *||la,|si|com' al|sol la ne-|
 C,2 C,2 F,4- | F,2 D,2 G,2 A,2 | G,8 | C,6 C,2 | G,2 G,2 D,4 | G,4 C,4 | A,,4 F,4 | D,4 _B,,4 | %31
w: ve, si com'|_ al sol la|ne-|ve, o|com'- al ven-|to si|dis- fa|la neb-|
 A,,8 | z8 | z8 | z8 | z4 G,4 | D,4 _B,4 | A,2 F,2 G,4 | C,4 C,4 | F,4 A,4 | G,2 C,2 D,4 | E,8 | %42
w: bia,||||ne|so che|far mi neb-|bia, ne|so che|far mi neb-|bia,|
 z8 | D,8 | A,6 B,2 | C4 G,4 | A,4 _B,4 | A,6 A,2 | G,2 E,2 F,4 | E,8 | z4 z2 C2 | B,2 G,2 A,4 | %52
w: |hor|pen- *|* sa-|te'al mio|mal, qual|es- ser de-|ve,|qual|es- ser de-|
 E,4 z4 | z2 C2 B,2 G,2 | A,4 D,4 | z4 A,4- | A,4 A,4 | E,8 | G,8 | D,4 E,2 C,2 | F,2 D,2 E,4 | %61
w: ve,|qual es- ser|de- ve,|hor|_ pen-|sa-|te'al|mio mal, qual|es- ser de-|
 A,,2 A,2 G,2 E,2 | F,4 C,2 C2 | B,2 G,2 A,4 | G,4 z2 C,2 | E,4 G,4 | A,6 G,2 | F,8 | E,8 |] %69
w: ve, qual es- ser|de- ve, qual|es- ser de-|ve, qual|es- ser|de- *||ve.|

